X:1
T:Magnus Barfod
T:Magnus Barfod
T:Melodi af B. Crusell
T:Joh. D. Behrens
T:Halv. Heyerdahl
C:Joh. D. Behrens
Z:Halv. Heyerdahl
%%score [ 1 2 3 4 ]
L:1/8
Q:1/4=114
M:4/4
K:C
V:1 treble-8 nm="T1"
V:2 treble-8 nm="T2"
V:3 bass nm="B1"
V:4 bass nm="B2"
V:1
!mf!"^Allegretto marcato" G2 | c2 G2 c2 e2 | (d>c) (B>c) d2 G2 | c4!<(! e4!<)! | g6 (g>f) | %5
w: 1.Mit|al- ler- før- ste|Kon- * ge- * ord med|Slag paa|Skjold, det _|
 e3!>(! d c2!>)! B2 |!<(! (A>B) (c>d)!<)! e2 c2 |!f! d4 B4 | c4 z2 |] %9
w: var at kal- de|højt _ fra _ Bord hver|Kjæm- pe|bold.|
V:2
!mf! G2 | G2 G2 c2 c2 | (B>A) (G>A) B2 G2 | c4!<(! c4!<)! | B6 d2 | c3!>(! B c2!>)! G2 | %6
w: 1.Mit|al- ler- før- ste|Kon- * ge- * ord med|Slag paa|Skjold, det|var at kal- de|
!<(! (A>B) (c>B)!<)! c2 G2 |!f! A4 B4 | G4 z2 |] %9
w: højt _ fra _ Bord hver|Kjæm- pe|bold.|
V:3
!mf! G,2 | E,2 G,2 G,2 G,2 | G,2 G,2 G,2 G,2 | G,4!<(! G,4!<)! | G,6 G,2 | G,3!>(! G, G,2!>)! G,2 | %6
w: 1.Mit|al- ler- før- ste|Kon- ge- ord med|Slag paa|Skjold, det|var at kal- de|
!<(! A,2 G,2!<)! G,2 G,2 |!f! A,4 G,4 | E,4 z2 |] %9
w: højt fra Bord hver|Kjæm- pe|bold.|
V:4
"_\n\n\n\n2.Jeg kuren Fredlyst arved ej, men Haralds Blod;\npaa Val gaar banet Kongevej for Kongemod.\n\n\n3.Og Sværdet svang jeg i min Haand mod Fiendens Magt,\nog atter saa jeg Nordens Aand til Kræfter vakt.\n\n\n4.Den slumred i min Faders Tid, halv kvalt af Mjød;\njeg vakte den i munter Strid paa Liv og Død.\n\n\n5.Jeg fremmest gik paa blodig Val, ej ænsed Saar:\n\"Til Æren Konger bejle skal, men ej til Aar!\"\n"!mf! G,2 | %1
w: 1.Mit|
 C,2 G,2 E,2 C,2 | G,,2 G,,2 G,,2 G,2 | E,4!<(! C,4!<)! | G,,6 B,,2 | C,3!>(! D, E,2!>)! E,2 | %6
w: al- ler- før- ste|Kon- ge- ord med|Slag paa|Skjold, det|var at kal- de|
!<(! F,2 (E,>D,)!<)! C,2 E,2 |!f! F,4 G,4 | C,4 z2 |] %9
w: højt fra _ Bord hver|Kjæm- pe|bold.|

